cssgg/moon.svg

<svg
  width="24"
  height="24"
  viewBox="0 0 24 24"
  fill="none"
  xmlns="http://www.w3.org/2000/svg"
>
  <path
    fill-rule="evenodd"
    clip-rule="evenodd"
    d="M12.2256 2.00253C9.59172 1.94346 6.93894 2.9189 4.92893 4.92891C1.02369 8.83415 1.02369 15.1658 4.92893 19.071C8.83418 22.9763 15.1658 22.9763 19.0711 19.071C21.0811 17.061 22.0565 14.4082 21.9975 11.7743C21.9796 10.9772 21.8669 10.1818 21.6595 9.40643C21.0933 9.9488 20.5078 10.4276 19.9163 10.8425C18.5649 11.7906 17.1826 12.4053 15.9301 12.6837C14.0241 13.1072 12.7156 12.7156 12 12C11.2844 11.2844 10.8928 9.97588 11.3163 8.0699C11.5947 6.81738 12.2094 5.43511 13.1575 4.08368C13.5724 3.49221 14.0512 2.90664 14.5935 2.34046C13.8182 2.13305 13.0228 2.02041 12.2256 2.00253ZM17.6569 17.6568C18.9081 16.4056 19.6582 14.8431 19.9072 13.2186C16.3611 15.2643 12.638 15.4664 10.5858 13.4142C8.53361 11.362 8.73568 7.63895 10.7814 4.09281C9.1569 4.34184 7.59434 5.09193 6.34315 6.34313C3.21895 9.46732 3.21895 14.5326 6.34315 17.6568C9.46734 20.781 14.5327 20.781 17.6569 17.6568Z"
    fill="currentColor"
  />
</svg>

<svg viewBox="0 0 24 24" xmlns="http://www.w3.org/2000/svg"><path fill-rule="evenodd" d="M12.22 2c-2.64-.06-5.29.91-7.3 2.92 -3.91 3.9-3.91 10.23 0 14.14 3.9 3.9 10.23 3.9 14.14 0 2.01-2.01 2.98-4.67 2.92-7.3 -.02-.8-.14-1.6-.34-2.37 -.57.54-1.16 1.02-1.75 1.43 -1.36.94-2.74 1.56-3.99 1.84 -1.91.42-3.22.03-3.94-.69 -.72-.72-1.11-2.03-.69-3.94 .27-1.26.89-2.64 1.84-3.99 .41-.6.89-1.18 1.436-1.75 -.78-.21-1.58-.33-2.37-.34Zm5.43 15.65c1.25-1.26 2-2.82 2.25-4.44 -3.55 2.04-7.27 2.24-9.33.19 -2.06-2.06-1.86-5.78.19-9.33 -1.63.24-3.19.99-4.44 2.25 -3.13 3.12-3.13 8.18 0 11.31 3.12 3.12 8.18 3.12 11.31 0Z"/></svg>
